documentation/public/assets/images/switch-05-do.svg

<svg width="154" height="21" viewBox="0 0 154 21" fill="none" xmlns="http://www.w3.org/2000/svg">
<rect x="0.570312" y="0.259766" width="40" height="20" rx="10" fill="#B5B5B5"/>
<circle cx="10.5703" cy="10.2598" r="8" fill="white"/>
<path d="M51.788 14.2598H50.7258L53.798 5.89297H54.8438L57.916 14.2598H56.8538L54.3536 7.21662H54.2882L51.788 14.2598ZM52.1802 10.9915H56.4616V11.8903H52.1802V10.9915ZM63.0431 11.6942V7.98467H64.0073V14.2598H63.0431V13.1976H62.9778C62.8307 13.5162 62.6019 13.7872 62.2914 14.0106C61.9809 14.2312 61.5887 14.3415 61.1148 14.3415C60.7226 14.3415 60.374 14.2557 60.069 14.0841C59.7639 13.9098 59.5243 13.6483 59.35 13.2997C59.1757 12.9484 59.0885 12.5058 59.0885 11.972V7.98467H60.0526V11.9066C60.0526 12.3642 60.1806 12.7291 60.4367 13.0015C60.6954 13.2738 61.025 13.41 61.4253 13.41C61.665 13.41 61.9088 13.3487 62.1566 13.2262C62.4072 13.1036 62.6169 12.9157 62.7857 12.6624C62.9573 12.4091 63.0431 12.0864 63.0431 11.6942ZM68.5022 7.98467V8.80174H65.2502V7.98467H68.5022ZM66.198 6.48126H67.1622V12.4622C67.1622 12.7346 67.2017 12.9388 67.2806 13.075C67.3624 13.2085 67.4659 13.2983 67.5911 13.3446C67.7191 13.3882 67.854 13.41 67.9956 13.41C68.1018 13.41 68.189 13.4046 68.257 13.3937C68.3251 13.3801 68.3796 13.3692 68.4205 13.361L68.6166 14.2271C68.5512 14.2516 68.46 14.2761 68.3428 14.3006C68.2257 14.3279 68.0773 14.3415 67.8975 14.3415C67.6252 14.3415 67.3583 14.2829 67.0968 14.1658C66.8381 14.0487 66.6229 13.8703 66.4513 13.6306C66.2825 13.3909 66.198 13.0886 66.198 12.7237V6.48126ZM72.4343 14.3905C71.8678 14.3905 71.3708 14.2557 70.9432 13.986C70.5183 13.7164 70.186 13.3392 69.9463 12.8544C69.7094 12.3696 69.5909 11.8031 69.5909 11.1549C69.5909 10.5012 69.7094 9.93066 69.9463 9.44314C70.186 8.95562 70.5183 8.57704 70.9432 8.30741C71.3708 8.03778 71.8678 7.90296 72.4343 7.90296C73.0008 7.90296 73.4965 8.03778 73.9214 8.30741C74.349 8.57704 74.6813 8.95562 74.9182 9.44314C75.1579 9.93066 75.2777 10.5012 75.2777 11.1549C75.2777 11.8031 75.1579 12.3696 74.9182 12.8544C74.6813 13.3392 74.349 13.7164 73.9214 13.986C73.4965 14.2557 73.0008 14.3905 72.4343 14.3905ZM72.4343 13.5244C72.8646 13.5244 73.2187 13.4141 73.4965 13.1935C73.7743 12.9729 73.9799 12.6828 74.1134 12.3233C74.2469 11.9638 74.3136 11.5743 74.3136 11.1549C74.3136 10.7355 74.2469 10.3446 74.1134 9.9824C73.9799 9.62017 73.7743 9.32739 73.4965 9.10405C73.2187 8.88072 72.8646 8.76905 72.4343 8.76905C72.004 8.76905 71.6499 8.88072 71.3721 9.10405C71.0943 9.32739 70.8887 9.62017 70.7552 9.9824C70.6218 10.3446 70.5551 10.7355 70.5551 11.1549C70.5551 11.5743 70.6218 11.9638 70.7552 12.3233C70.8887 12.6828 71.0943 12.9729 71.3721 13.1935C71.6499 13.4141 72.004 13.5244 72.4343 13.5244ZM76.7495 14.2598V7.98467H77.6809V8.96515H77.7626C77.8934 8.63015 78.1044 8.37005 78.3959 8.18485C78.6873 7.99692 79.0373 7.90296 79.4458 7.90296C79.8598 7.90296 80.2043 7.99692 80.4794 8.18485C80.7572 8.37005 80.9737 8.63015 81.129 8.96515H81.1943C81.355 8.64105 81.5961 8.38367 81.9174 8.19302C82.2388 7.99965 82.6242 7.90296 83.0736 7.90296C83.6346 7.90296 84.0936 8.07863 84.4504 8.42997C84.8071 8.77859 84.9855 9.32194 84.9855 10.06V14.2598H84.0214V10.06C84.0214 9.59702 83.8947 9.26611 83.6415 9.06728C83.3882 8.86846 83.0899 8.76905 82.7468 8.76905C82.3055 8.76905 81.9637 8.90251 81.7213 9.16942C81.4789 9.4336 81.3577 9.7686 81.3577 10.1744V14.2598H80.3773V9.96198C80.3773 9.60519 80.2615 9.31785 80.03 9.09997C79.7985 8.87936 79.5003 8.76905 79.1353 8.76905C78.8847 8.76905 78.6505 8.83578 78.4326 8.96924C78.2175 9.10269 78.0432 9.28789 77.9097 9.52484C77.779 9.75907 77.7136 10.0301 77.7136 10.3378V14.2598H76.7495ZM88.5949 14.4068C88.1973 14.4068 87.8364 14.3319 87.5123 14.1821C87.1882 14.0296 86.9308 13.8104 86.7402 13.5244C86.5495 13.2357 86.4542 12.8871 86.4542 12.4786C86.4542 12.119 86.525 11.8276 86.6667 11.6043C86.8083 11.3782 86.9976 11.2012 87.2345 11.0732C87.4715 10.9452 87.7329 10.8499 88.0189 10.7872C88.3076 10.7219 88.5977 10.6701 88.8891 10.632C89.2704 10.5829 89.5795 10.5462 89.8165 10.5217C90.0561 10.4944 90.2304 10.4495 90.3394 10.3869C90.4511 10.3242 90.5069 10.2153 90.5069 10.06V10.0273C90.5069 9.62425 90.3966 9.31104 90.176 9.08771C89.9581 8.86438 89.6272 8.75271 89.1832 8.75271C88.723 8.75271 88.3621 8.85348 88.1006 9.05503C87.8392 9.25657 87.6553 9.47173 87.5491 9.70051L86.634 9.37369C86.7974 8.99239 87.0153 8.69552 87.2876 8.48308C87.5627 8.26792 87.8623 8.11812 88.1864 8.03369C88.5132 7.94654 88.8346 7.90296 89.1506 7.90296C89.3521 7.90296 89.5836 7.92747 89.8451 7.9765C90.1092 8.0228 90.3639 8.11948 90.609 8.26656C90.8569 8.41363 91.0625 8.6356 91.2259 8.93247C91.3893 9.22934 91.471 9.62698 91.471 10.1254V14.2598H90.5069V13.41H90.4579C90.3925 13.5462 90.2836 13.6919 90.131 13.8471C89.9785 14.0024 89.7756 14.1345 89.5223 14.2434C89.269 14.3524 88.9599 14.4068 88.5949 14.4068ZM88.742 13.5407C89.1233 13.5407 89.4447 13.4658 89.7062 13.316C89.9703 13.1663 90.1692 12.9729 90.3026 12.7359C90.4388 12.499 90.5069 12.2498 90.5069 11.9883V11.1059C90.466 11.1549 90.3762 11.1998 90.2373 11.2407C90.1011 11.2788 89.9431 11.3129 89.7634 11.3428C89.5863 11.3701 89.4134 11.3946 89.2445 11.4164C89.0784 11.4354 88.9436 11.4518 88.8401 11.4654C88.5895 11.4981 88.3553 11.5512 88.1374 11.6247C87.9222 11.6955 87.7479 11.8031 87.6145 11.9475C87.4837 12.0891 87.4184 12.2825 87.4184 12.5276C87.4184 12.8626 87.5423 13.1159 87.7901 13.2875C88.0407 13.4563 88.358 13.5407 88.742 13.5407ZM95.9598 7.98467V8.80174H92.7079V7.98467H95.9598ZM93.6557 6.48126H94.6198V12.4622C94.6198 12.7346 94.6593 12.9388 94.7383 13.075C94.82 13.2085 94.9235 13.2983 95.0488 13.3446C95.1768 13.3882 95.3116 13.41 95.4532 13.41C95.5594 13.41 95.6466 13.4046 95.7147 13.3937C95.7828 13.3801 95.8373 13.3692 95.8781 13.361L96.0742 14.2271C96.0088 14.2516 95.9176 14.2761 95.8005 14.3006C95.6834 14.3279 95.5349 14.3415 95.3552 14.3415C95.0828 14.3415 94.8159 14.2829 94.5545 14.1658C94.2957 14.0487 94.0806 13.8703 93.909 13.6306C93.7401 13.3909 93.6557 13.0886 93.6557 12.7237V6.48126ZM97.4101 14.2598V7.98467H98.3743V14.2598H97.4101ZM97.9004 6.93882C97.7124 6.93882 97.5504 6.87481 97.4142 6.74681C97.2807 6.6188 97.214 6.46492 97.214 6.28516C97.214 6.10541 97.2807 5.95152 97.4142 5.82352C97.5504 5.69551 97.7124 5.6315 97.9004 5.6315C98.0883 5.6315 98.249 5.69551 98.3824 5.82352C98.5186 5.95152 98.5867 6.10541 98.5867 6.28516C98.5867 6.46492 98.5186 6.6188 98.3824 6.74681C98.249 6.87481 98.0883 6.93882 97.9004 6.93882ZM102.689 14.3905C102.101 14.3905 101.595 14.2516 101.17 13.9738C100.745 13.696 100.418 13.3133 100.189 12.8258C99.9604 12.3383 99.846 11.7813 99.846 11.1549C99.846 10.5176 99.9631 9.95517 100.197 9.46765C100.434 8.97741 100.764 8.59475 101.186 8.31967C101.611 8.04186 102.107 7.90296 102.673 7.90296C103.114 7.90296 103.512 7.98467 103.866 8.14808C104.22 8.31149 104.51 8.54027 104.736 8.83442C104.962 9.12856 105.102 9.47173 105.157 9.86393H104.193C104.119 9.57795 103.956 9.32466 103.703 9.10405C103.452 8.88072 103.114 8.76905 102.689 8.76905C102.314 8.76905 101.984 8.8671 101.701 9.0632C101.42 9.25657 101.201 9.53029 101.043 9.88435C100.888 10.2357 100.81 10.6483 100.81 11.1222C100.81 11.607 100.886 12.0292 101.039 12.3887C101.194 12.7482 101.412 13.0274 101.693 13.2262C101.976 13.425 102.308 13.5244 102.689 13.5244C102.94 13.5244 103.167 13.4808 103.372 13.3937C103.576 13.3065 103.749 13.1812 103.89 13.0178C104.032 12.8544 104.133 12.6583 104.193 12.4295H105.157C105.102 12.7999 104.968 13.1336 104.753 13.4304C104.54 13.7246 104.258 13.9588 103.907 14.1331C103.558 14.3047 103.152 14.3905 102.689 14.3905ZM113.757 11.6942V7.98467H114.721V14.2598H113.757V13.1976H113.691C113.544 13.5162 113.315 13.7872 113.005 14.0106C112.694 14.2312 112.302 14.3415 111.828 14.3415C111.436 14.3415 111.088 14.2557 110.782 14.0841C110.477 13.9098 110.238 13.6483 110.063 13.2997C109.889 12.9484 109.802 12.5058 109.802 11.972V7.98467H110.766V11.9066C110.766 12.3642 110.894 12.7291 111.15 13.0015C111.409 13.2738 111.738 13.41 112.139 13.41C112.378 13.41 112.622 13.3487 112.87 13.2262C113.121 13.1036 113.33 12.9157 113.499 12.6624C113.671 12.4091 113.757 12.0864 113.757 11.6942ZM116.487 16.6129V7.98467H117.418V8.98149H117.533C117.603 8.87255 117.701 8.73365 117.827 8.56479C117.955 8.3932 118.137 8.24068 118.374 8.10723C118.614 7.97105 118.938 7.90296 119.346 7.90296C119.875 7.90296 120.341 8.03505 120.744 8.29924C121.147 8.56342 121.461 8.93792 121.687 9.42271C121.913 9.90751 122.026 10.4795 122.026 11.1386C122.026 11.8031 121.913 12.3791 121.687 12.8667C121.461 13.3515 121.148 13.7273 120.748 13.9942C120.347 14.2584 119.886 14.3905 119.363 14.3905C118.96 14.3905 118.637 14.3238 118.395 14.1903C118.152 14.0541 117.966 13.9003 117.835 13.7287C117.704 13.5544 117.603 13.41 117.533 13.2956H117.451V16.6129H116.487ZM117.434 11.1222C117.434 11.5961 117.504 12.0142 117.643 12.3764C117.782 12.7359 117.985 13.0178 118.252 13.2221C118.518 13.4236 118.845 13.5244 119.232 13.5244C119.635 13.5244 119.971 13.4182 120.241 13.2057C120.513 12.9906 120.718 12.7019 120.854 12.3397C120.993 11.9747 121.062 11.5689 121.062 11.1222C121.062 10.681 120.994 10.2834 120.858 9.92929C120.725 9.57251 120.522 9.29062 120.249 9.08363C119.98 8.87391 119.641 8.76905 119.232 8.76905C118.84 8.76905 118.51 8.86846 118.243 9.06728C117.976 9.26338 117.775 9.53846 117.639 9.89253C117.503 10.2439 117.434 10.6538 117.434 11.1222ZM125.867 14.3905C125.344 14.3905 124.882 14.2584 124.482 13.9942C124.081 13.7273 123.768 13.3515 123.542 12.8667C123.316 12.3791 123.203 11.8031 123.203 11.1386C123.203 10.4795 123.316 9.90751 123.542 9.42271C123.768 8.93792 124.083 8.56342 124.486 8.29924C124.889 8.03505 125.355 7.90296 125.883 7.90296C126.292 7.90296 126.614 7.97105 126.851 8.10723C127.091 8.24068 127.273 8.3932 127.399 8.56479C127.527 8.73365 127.626 8.87255 127.697 8.98149H127.779V5.89297H128.743V14.2598H127.811V13.2956H127.697C127.626 13.41 127.525 13.5544 127.395 13.7287C127.264 13.9003 127.077 14.0541 126.835 14.1903C126.592 14.3238 126.27 14.3905 125.867 14.3905ZM125.997 13.5244C126.384 13.5244 126.711 13.4236 126.978 13.2221C127.245 13.0178 127.448 12.7359 127.587 12.3764C127.725 12.0142 127.795 11.5961 127.795 11.1222C127.795 10.6538 127.727 10.2439 127.591 9.89253C127.454 9.53846 127.253 9.26338 126.986 9.06728C126.719 8.86846 126.39 8.76905 125.997 8.76905C125.589 8.76905 125.248 8.87391 124.976 9.08363C124.706 9.29062 124.503 9.57251 124.367 9.92929C124.234 10.2834 124.167 10.681 124.167 11.1222C124.167 11.5689 124.235 11.9747 124.371 12.3397C124.51 12.7019 124.715 12.9906 124.984 13.2057C125.257 13.4182 125.594 13.5244 125.997 13.5244ZM132.489 14.4068C132.091 14.4068 131.73 14.3319 131.406 14.1821C131.082 14.0296 130.825 13.8104 130.634 13.5244C130.444 13.2357 130.348 12.8871 130.348 12.4786C130.348 12.119 130.419 11.8276 130.561 11.6043C130.702 11.3782 130.892 11.2012 131.129 11.0732C131.366 10.9452 131.627 10.8499 131.913 10.7872C132.202 10.7219 132.492 10.6701 132.783 10.632C133.164 10.5829 133.474 10.5462 133.71 10.5217C133.95 10.4944 134.124 10.4495 134.233 10.3869C134.345 10.3242 134.401 10.2153 134.401 10.06V10.0273C134.401 9.62425 134.291 9.31104 134.07 9.08771C133.852 8.86438 133.521 8.75271 133.077 8.75271C132.617 8.75271 132.256 8.85348 131.995 9.05503C131.733 9.25657 131.549 9.47173 131.443 9.70051L130.528 9.37369C130.691 8.99239 130.909 8.69552 131.182 8.48308C131.457 8.26792 131.756 8.11812 132.08 8.03369C132.407 7.94654 132.729 7.90296 133.045 7.90296C133.246 7.90296 133.478 7.92747 133.739 7.9765C134.003 8.0228 134.258 8.11948 134.503 8.26656C134.751 8.41363 134.957 8.6356 135.12 8.93247C135.283 9.22934 135.365 9.62698 135.365 10.1254V14.2598H134.401V13.41H134.352C134.287 13.5462 134.178 13.6919 134.025 13.8471C133.873 14.0024 133.67 14.1345 133.416 14.2434C133.163 14.3524 132.854 14.4068 132.489 14.4068ZM132.636 13.5407C133.017 13.5407 133.339 13.4658 133.6 13.316C133.864 13.1663 134.063 12.9729 134.197 12.7359C134.333 12.499 134.401 12.2498 134.401 11.9883V11.1059C134.36 11.1549 134.27 11.1998 134.131 11.2407C133.995 11.2788 133.837 11.3129 133.657 11.3428C133.48 11.3701 133.307 11.3946 133.139 11.4164C132.972 11.4354 132.838 11.4518 132.734 11.4654C132.484 11.4981 132.249 11.5512 132.031 11.6247C131.816 11.6955 131.642 11.8031 131.508 11.9475C131.378 12.0891 131.312 12.2825 131.312 12.5276C131.312 12.8626 131.436 13.1159 131.684 13.2875C131.935 13.4563 132.252 13.5407 132.636 13.5407ZM139.854 7.98467V8.80174H136.602V7.98467H139.854ZM137.55 6.48126H138.514V12.4622C138.514 12.7346 138.553 12.9388 138.632 13.075C138.714 13.2085 138.818 13.2983 138.943 13.3446C139.071 13.3882 139.206 13.41 139.347 13.41C139.453 13.41 139.541 13.4046 139.609 13.3937C139.677 13.3801 139.731 13.3692 139.772 13.361L139.968 14.2271C139.903 14.2516 139.812 14.2761 139.695 14.3006C139.577 14.3279 139.429 14.3415 139.249 14.3415C138.977 14.3415 138.71 14.2829 138.448 14.1658C138.19 14.0487 137.975 13.8703 137.803 13.6306C137.634 13.3909 137.55 13.0886 137.55 12.7237V6.48126ZM143.868 14.3905C143.263 14.3905 142.742 14.257 142.303 13.9901C141.867 13.7205 141.531 13.3446 141.294 12.8626C141.06 12.3778 140.943 11.814 140.943 11.1712C140.943 10.5285 141.06 9.96198 141.294 9.47173C141.531 8.97877 141.86 8.59475 142.283 8.31967C142.707 8.04186 143.203 7.90296 143.77 7.90296C144.096 7.90296 144.419 7.95743 144.738 8.06637C145.057 8.17532 145.347 8.35235 145.608 8.59747C145.87 8.83987 146.078 9.16125 146.233 9.56161C146.388 9.96198 146.466 10.4549 146.466 11.0405V11.449H141.629V10.6156H145.485C145.485 10.2616 145.415 9.94563 145.273 9.66783C145.134 9.39003 144.935 9.17078 144.677 9.01009C144.421 8.8494 144.118 8.76905 143.77 8.76905C143.386 8.76905 143.053 8.86438 142.773 9.05503C142.495 9.24295 142.281 9.48808 142.131 9.79039C141.982 10.0927 141.907 10.4168 141.907 10.7627V11.3183C141.907 11.7922 141.988 12.1939 142.152 12.5235C142.318 12.8503 142.548 13.0995 142.842 13.2711C143.136 13.44 143.478 13.5244 143.868 13.5244C144.121 13.5244 144.35 13.489 144.554 13.4182C144.761 13.3446 144.939 13.2357 145.089 13.0914C145.239 12.9443 145.355 12.7618 145.436 12.5439L146.368 12.8054C146.27 13.1213 146.105 13.3991 145.874 13.6388C145.642 13.8757 145.356 14.0609 145.016 14.1944C144.675 14.3251 144.293 14.3905 143.868 14.3905ZM152.377 9.39003L151.511 9.63515C151.457 9.4908 151.377 9.35054 151.27 9.21436C151.167 9.07546 151.025 8.96107 150.845 8.87119C150.666 8.78131 150.436 8.73637 150.155 8.73637C149.771 8.73637 149.451 8.82489 149.195 9.00192C148.942 9.17623 148.815 9.3982 148.815 9.66783C148.815 9.90751 148.902 10.0968 149.077 10.2357C149.251 10.3746 149.523 10.4903 149.894 10.5829L150.825 10.8117C151.386 10.9479 151.804 11.1563 152.079 11.4368C152.354 11.7146 152.492 12.0727 152.492 12.5112C152.492 12.8707 152.388 13.1921 152.181 13.4754C151.977 13.7586 151.691 13.982 151.323 14.1454C150.956 14.3088 150.528 14.3905 150.041 14.3905C149.401 14.3905 148.871 14.2516 148.451 13.9738C148.032 13.696 147.766 13.2902 147.655 12.7564L148.57 12.5276C148.657 12.8653 148.822 13.1186 149.064 13.2875C149.309 13.4563 149.629 13.5407 150.024 13.5407C150.474 13.5407 150.83 13.4454 151.095 13.2548C151.362 13.0614 151.495 12.8299 151.495 12.5603C151.495 12.3424 151.419 12.1599 151.266 12.0128C151.114 11.863 150.88 11.7514 150.564 11.6778L149.518 11.4327C148.943 11.2965 148.521 11.0854 148.251 10.7995C147.984 10.5108 147.851 10.1499 147.851 9.71686C147.851 9.36279 147.95 9.04958 148.149 8.77722C148.351 8.50487 148.624 8.29107 148.97 8.13582C149.319 7.98058 149.714 7.90296 150.155 7.90296C150.776 7.90296 151.264 8.03914 151.618 8.31149C151.974 8.58385 152.228 8.94336 152.377 9.39003Z" fill="#1F1F1F"/>
</svg>

<svg width="154" height="21" fill="none" xmlns="http://www.w3.org/2000/svg"><rect x=".57" y=".26" width="40" height="20" rx="10" fill="#B5B5B5"/><circle cx="10.57" cy="10.26" r="8" fill="#fff"/><path d="M51.79 14.26h-1.06l3.07-8.37h1.04l3.08 8.37h-1.07l-2.5-7.04h-.06l-2.5 7.04Zm.39-3.27h4.28v.9h-4.28v-.9Zm10.86.7V8h.97v6.27h-.97V13.2h-.06a1.98 1.98 0 0 1-1.86 1.14 2 2 0 0 1-1.05-.26 1.8 1.8 0 0 1-.72-.78c-.17-.35-.26-.8-.26-1.33V7.98h.96v3.93c0 .45.13.82.39 1.1.26.26.59.4.99.4a1.64 1.64 0 0 0 1.61-1.72ZM68.5 8v.81h-3.25v-.82h3.25Zm-2.3-1.5h.96v5.97c0 .27.04.48.12.61.08.14.19.23.31.27.13.05.26.07.4.07a1.7 1.7 0 0 0 .43-.05l.2.87a1.96 1.96 0 0 1-.72.11c-.27 0-.54-.06-.8-.17a1.6 1.6 0 0 1-.65-.54 1.54 1.54 0 0 1-.25-.9V6.47Zm6.23 7.9c-.56 0-1.06-.13-1.49-.4a2.75 2.75 0 0 1-1-1.14 3.83 3.83 0 0 1-.35-1.7c0-.65.12-1.22.36-1.7a2.66 2.66 0 0 1 2.48-1.54c.57 0 1.07.13 1.5.4.42.27.75.65.99 1.13.24.5.36 1.06.36 1.71a3.8 3.8 0 0 1-.36 1.7 2.7 2.7 0 0 1-1 1.14c-.42.27-.92.4-1.49.4Zm0-.87c.43 0 .79-.1 1.07-.33.27-.22.48-.5.61-.87.14-.36.2-.75.2-1.17 0-.41-.06-.8-.2-1.17a1.98 1.98 0 0 0-.61-.88 1.64 1.64 0 0 0-1.07-.33c-.43 0-.78.11-1.06.33-.28.23-.48.52-.61.88-.14.36-.2.76-.2 1.17 0 .42.06.81.2 1.17.13.36.33.65.61.87.28.22.63.33 1.06.33Zm4.32.74V7.98h.93v.99h.08c.13-.34.34-.6.64-.79.29-.18.64-.28 1.05-.28.41 0 .75.1 1.03.28.28.19.5.45.65.79h.06c.17-.33.4-.59.73-.78.32-.19.7-.29 1.15-.29.56 0 1.02.18 1.38.53.36.35.54.9.54 1.63v4.2h-.97v-4.2c0-.46-.13-.8-.38-1a1.4 1.4 0 0 0-.9-.3c-.43 0-.78.14-1.02.4-.24.27-.36.6-.36 1.01v4.09h-.98v-4.3c0-.35-.12-.64-.35-.86a1.24 1.24 0 0 0-.9-.33c-.25 0-.48.07-.7.2-.21.13-.39.32-.52.55-.13.24-.2.51-.2.82v3.92h-.96Zm11.84.15c-.4 0-.75-.08-1.08-.23a1.86 1.86 0 0 1-.77-.66c-.2-.28-.29-.63-.29-1.04 0-.36.08-.65.22-.88.14-.22.33-.4.56-.53.24-.12.5-.22.79-.28.29-.07.58-.12.87-.16l.93-.1c.24-.04.41-.08.52-.14.11-.07.17-.17.17-.33v-.03c0-.4-.11-.72-.33-.94-.22-.23-.55-.34-1-.34-.46 0-.82.1-1.08.3-.26.2-.44.42-.55.65l-.92-.33a2.2 2.2 0 0 1 1.56-1.34 3.73 3.73 0 0 1 1.66-.05c.26.04.51.14.76.29.25.14.45.37.62.66.16.3.24.7.24 1.2v4.13h-.96v-.85h-.05a1.88 1.88 0 0 1-.94.83 2.3 2.3 0 0 1-.93.17Zm.15-.87c.38 0 .7-.07.97-.22a1.53 1.53 0 0 0 .8-1.33v-.88a.66.66 0 0 1-.27.13 4.55 4.55 0 0 1-1 .18l-.4.05c-.25.03-.48.08-.7.15-.22.08-.4.18-.53.33a.82.82 0 0 0-.2.58c0 .33.13.59.38.76.25.17.57.25.95.25Zm7.22-5.56v.82h-3.25v-.82h3.25Zm-2.3-1.5h.96v5.98c0 .27.04.48.12.61.08.14.18.23.3.27.14.05.27.07.41.07a1.71 1.71 0 0 0 .43-.05l.2.87a1.96 1.96 0 0 1-.72.11c-.28 0-.54-.06-.8-.17-.26-.12-.48-.3-.65-.54a1.54 1.54 0 0 1-.25-.9V6.47Zm3.75 7.78V7.98h.96v6.28h-.96Zm.49-7.32a.69.69 0 0 1-.49-.2.62.62 0 0 1-.2-.45c0-.18.07-.34.2-.47.14-.12.3-.19.49-.19s.35.07.48.2c.14.12.2.28.2.46a.6.6 0 0 1-.2.46.7.7 0 0 1-.48.19Zm4.79 7.45c-.59 0-1.1-.14-1.52-.42a2.72 2.72 0 0 1-.98-1.14 3.9 3.9 0 0 1-.34-1.68c0-.63.11-1.2.35-1.68a2.66 2.66 0 0 1 2.48-1.56c.43 0 .83.07 1.19.24a2.15 2.15 0 0 1 1.3 1.72h-.98a1.47 1.47 0 0 0-1.5-1.1c-.38 0-.7.1-.99.3-.28.19-.5.46-.66.81-.15.36-.23.77-.23 1.24 0 .49.08.9.23 1.27a1.71 1.71 0 0 0 1.65 1.14c.25 0 .48-.05.68-.14a1.4 1.4 0 0 0 .82-.96h.97a2.24 2.24 0 0 1-1.25 1.7c-.35.17-.76.26-1.22.26Zm11.07-2.7V8h.96v6.27h-.96V13.2h-.07a1.98 1.98 0 0 1-1.86 1.14c-.4 0-.74-.08-1.05-.26a1.8 1.8 0 0 1-.72-.78c-.17-.35-.26-.8-.26-1.33V7.98h.97v3.93c0 .45.12.82.38 1.1.26.26.59.4.99.4a1.64 1.64 0 0 0 1.62-1.72Zm2.73 4.92V7.98h.93v1h.11l.3-.42c.13-.17.3-.32.54-.45.24-.14.57-.2.98-.2a2.5 2.5 0 0 1 2.34 1.51c.22.49.34 1.06.34 1.72a4.2 4.2 0 0 1-.34 1.73 2.46 2.46 0 0 1-2.32 1.52 2 2 0 0 1-.98-.2 1.8 1.8 0 0 1-.56-.46 5.81 5.81 0 0 1-.3-.43h-.08v3.31h-.96Zm.94-5.49c0 .48.07.9.21 1.26a1.6 1.6 0 0 0 1.59 1.14c.4 0 .74-.1 1.01-.31.27-.22.48-.5.61-.87.14-.37.21-.77.21-1.22 0-.44-.07-.84-.2-1.2a1.84 1.84 0 0 0-.61-.84 1.6 1.6 0 0 0-1.02-.31 1.61 1.61 0 0 0-1.6 1.12c-.13.35-.2.76-.2 1.23Zm8.44 3.27a2.46 2.46 0 0 1-2.33-1.52 4.08 4.08 0 0 1-.34-1.73c0-.66.12-1.23.34-1.72a2.5 2.5 0 0 1 2.34-1.52c.41 0 .73.07.97.2a2 2 0 0 1 .55.46l.3.42h.08V5.9h.96v8.37h-.93v-.96h-.11l-.3.43a1.8 1.8 0 0 1-.57.46 2 2 0 0 1-.96.2Zm.13-.87c.38 0 .71-.1.98-.3.27-.2.47-.48.6-.84.14-.37.22-.78.22-1.26 0-.47-.07-.88-.2-1.23a1.6 1.6 0 0 0-1.6-1.12c-.41 0-.75.1-1.02.31s-.48.5-.61.85c-.14.35-.2.75-.2 1.2 0 .44.06.84.2 1.21a2 2 0 0 0 .61.87c.28.2.61.31 1.02.31Zm6.49.89c-.4 0-.76-.08-1.08-.23a1.86 1.86 0 0 1-.78-.66 1.86 1.86 0 0 1-.28-1.04c0-.36.07-.65.21-.88.14-.22.33-.4.57-.53.24-.12.5-.22.78-.28.3-.07.58-.12.87-.16l.93-.1c.24-.04.41-.08.52-.14.12-.07.17-.17.17-.33v-.03c0-.4-.1-.72-.33-.94-.22-.23-.55-.34-1-.34a1.72 1.72 0 0 0-1.63.95l-.91-.33a2.24 2.24 0 0 1 1.55-1.34 3.74 3.74 0 0 1 1.66-.05c.26.04.52.14.76.29.25.14.46.37.62.66.16.3.25.7.25 1.2v4.13h-.97v-.85h-.05c-.06.14-.17.28-.32.44-.16.15-.36.28-.61.4-.26.1-.57.16-.93.16Zm.15-.87c.38 0 .7-.07.96-.22a1.54 1.54 0 0 0 .8-1.33v-.88a.66.66 0 0 1-.27.13 4.52 4.52 0 0 1-1 .18l-.4.05a3.7 3.7 0 0 0-.7.15c-.21.08-.39.18-.52.33a.83.83 0 0 0-.2.58c0 .33.13.59.37.76.25.17.57.25.96.25Zm7.21-5.56v.82h-3.25v-.82h3.25Zm-2.3-1.5h.96v5.98c0 .27.04.48.12.61.08.14.19.23.31.27.13.05.27.07.4.07.11 0 .2 0 .27-.02l.16-.03.2.87a1.94 1.94 0 0 1-.72.11c-.27 0-.54-.06-.8-.17a1.6 1.6 0 0 1-.65-.54 1.54 1.54 0 0 1-.25-.9V6.47Zm6.32 7.91a2.69 2.69 0 0 1-2.57-1.53 3.85 3.85 0 0 1-.36-1.69 4 4 0 0 1 .35-1.7 2.65 2.65 0 0 1 2.48-1.57c.33 0 .65.06.97.17a2.4 2.4 0 0 1 1.5 1.5c.15.4.23.88.23 1.47v.4h-4.84v-.82h3.86c0-.36-.08-.67-.22-.95a1.6 1.6 0 0 0-1.5-.9 1.8 1.8 0 0 0-1.64 1.02c-.15.3-.22.63-.22.97v.56c0 .47.08.87.24 1.2.17.33.4.58.7.75.29.17.63.25 1.02.25.25 0 .48-.03.68-.1.21-.08.39-.18.54-.33.15-.15.26-.33.35-.55l.93.27a2.15 2.15 0 0 1-1.35 1.38c-.34.14-.73.2-1.15.2Zm8.5-5-.86.25a1.57 1.57 0 0 0-.24-.43c-.1-.13-.25-.25-.43-.34-.17-.09-.4-.13-.69-.13-.38 0-.7.08-.96.26-.25.18-.38.4-.38.67 0 .24.1.43.27.57.17.13.44.25.81.34l.94.23c.56.14.97.35 1.25.63.27.27.41.63.41 1.07 0 .36-.1.68-.3.97-.21.28-.5.5-.87.67-.36.16-.8.24-1.28.24a2.8 2.8 0 0 1-1.59-.42 1.85 1.85 0 0 1-.8-1.21l.92-.23c.09.34.25.59.5.76.24.17.56.25.95.25.45 0 .81-.1 1.07-.29.27-.19.4-.42.4-.69 0-.22-.07-.4-.22-.55a1.46 1.46 0 0 0-.7-.33l-1.05-.25a2.5 2.5 0 0 1-1.27-.63c-.27-.29-.4-.65-.4-1.08 0-.36.1-.67.3-.94.2-.28.47-.49.82-.64.35-.16.74-.24 1.19-.24.62 0 1.1.14 1.46.41.35.27.6.63.76 1.08Z" fill="#1F1F1F"/></svg>
